src/assets/flags/ne.svg

<?xml version="1.0" encoding="UTF-8"?>
<svg xmlns="http://www.w3.org/2000/svg" xmlns:xlink="http://www.w3.org/1999/xlink" width="25px" height="px" viewBox="0 0 25 19" version="1.1">
<g id="surface1">
<rect x="0" y="0" width="25" height="19" style="fill:rgb(5.098039%,69.01961%,16.862746%);fill-opacity:1;stroke:none;"/>
<path style=" stroke:none;fill-rule:nonzero;fill:rgb(100%,100%,100%);fill-opacity:1;" d="M 0 0 L 25 0 L 25 12.667969 L 0 12.667969 Z M 0 0 "/>
<path style=" stroke:none;fill-rule:nonzero;fill:rgb(87.843138%,32.156864%,2.352941%);fill-opacity:1;" d="M 0 0 L 25 0 L 25 6.332031 L 0 6.332031 Z M 0 0 "/>
<path style=" stroke:none;fill-rule:nonzero;fill:rgb(87.843138%,32.156864%,2.352941%);fill-opacity:1;" d="M 15.15625 9.5 C 15.15625 8.011719 13.96875 6.808594 12.5 6.808594 C 11.03125 6.808594 9.84375 8.011719 9.84375 9.5 C 9.84375 10.988281 11.03125 12.191406 12.5 12.191406 C 13.96875 12.191406 15.15625 10.988281 15.15625 9.5 Z M 15.15625 9.5 "/>
</g>
</svg>

<svg xmlns="http://www.w3.org/2000/svg" width="25" height="px" viewBox="0 0 25 19"><path d="M0 0h25v19H0z" style="fill:#0db02b;fill-opacity:1;stroke:none"/><path d="M0 0h25v12.668H0Zm0 0" style="stroke:none;fill-rule:nonzero;fill:#fff;fill-opacity:1"/><path d="M0 0h25v6.332H0ZM15.156 9.5c0-1.488-1.187-2.691-2.656-2.691S9.844 8.012 9.844 9.5s1.187 2.691 2.656 2.691 2.656-1.203 2.656-2.691m0 0" style="stroke:none;fill-rule:nonzero;fill:#e05206;fill-opacity:1"/></svg>
